X: 119
T:Market To
R:Jig
Z:Alf 
M:6/8
L:1/8
Q:3/8=120
K:A
~E3 ECE|EFA A2f|edc Bcd|cBA ~F3|
~E3 ECE|EFA A2f|edc BAB|[1 cAA AGF:|[2 cAA Acd|
|:~e2e ece|f2g a2f|edc Bcd|cBA ~F3||[1 e2e ece|f2g a2f
|edc Bcd|cAA A3:|[2 Ace def|cde fga|edc Bcd|cAA A3|]
